X: 429
T: Daniel O'Daly   #2
N: Irish title: do.mnall ua dalai.g
R: air, waltz
%S: s:2 b:16(8+8)
B: O'Neill's 1850 #429
O: J.O'Neill
Z: henrik.norbeck@mailbox.swipnet.se
N: Compacted via repeats and multiple endings [JC]
N: Compacted by using labels and play order [JC]
P: Play AB1 B2A
Q: "Slow"
M: 3/4
L: 1/8
K: D
D/E/\
"^A"[| F2 G2 A2 | d2 A2 A>G | TE2 D2 D2 | D4 \
"^B"|:  d>e | f2 e2 d>e | d3 e d/c/A/G/ |[1 A2 d2 d2 | d4 :|[2 TE2 D2 C2 | C4 D>"^->A"E |]
